X:1
T:Se nel proprio valor
T:Domenico Micheli
T:Se nel proprio valor
T:Canzon, quarta stanza
C:Domenico Micheli
%%score [ 1 2 3 4 ]
L:1/8
Q:1/4=108
M:4/2
K:C
V:1 treble nm="Soprano" snm="S"
V:2 alto1 nm="Alto" snm="A"
V:3 alto nm="Quinto" snm="Q"
V:4 bass3 nm="Bass" snm="B"
V:1
 z16 |[K:Bb] z8 z4 B4- | B2 B2 c4 d4 e4 | c2 d4 B4 A2 c4 | d8 z4 c4- | c4 A6 B2 G4 | A8 z8 | %7
w: |Se|_ nel pro- prio va-|lor tan- to ti fi-|di, tan-|* to ti fi-|di,|
 z8 F6 F2 | G2 G4 G2 B8 | z4 G8 c4- | c2 A2 d4 c8 | z2 c4 A2 A4 B2 A2 | GF B3 A/G/ A2 B8 | z16 | %14
w: Ch'a na-|tu- ra et al ciel|can- giar|_ fai sta- to,|To- gli al tem- po il pas-|* * sa- * * * to,||
 z4 B4 A2 F2 G2 A2 | B2 F2 G2 A2 B8 | A4 z2 c2 B2 A2 G4 | A8 z8 | z4 c6 c2 A4 | B2 A2 G4 z2 A4 A2 | %20
w: Fa che per co- sa al|mond' et a Dio no-|va, et a Dio no-|va,|Chi mi die-|de il ve- len, Chi mi|
 B4 A2 F2 G4 z2 G2- | G2 A4 B4 c4 d2- | d2 G2 c2 A2 d4 c4 | z16 | z16 | z16 | z4 c4 c2 c2 c4- | %27
w: die- de il ve- len non|_ l'hab- bia da- to,|_ non l'hab- bia da- to,||||O se di cio|
 c4 A4 B8 | A4 A8 c4- | c2 A2 c8 d4 | d4 e4 d4 c4- | c4 =B4 c8 | z4 G4 A6 c2 | B4 A4 c4 d2 A2 | %34
w: _ ti sfi-|di, Mo- stra|_ tua gran po-|ten- za in mi- nor|_ pro- va,|Tu sai quel|che m'of- fen- de e|
 A2 A2 B4 G4 z2 c2 | c2 c2 d8 c4 | z4 f6 f2 d4 | e2 d2 c4 z4 B4- | B4 A2 G2 B4 A4 | %39
w: che mi gio- va, e|che mi gio- va,|Fa che l'un|ve- sta'l cor l'al-|* tro lo snu- di,|
 z4 B4 A2 B2 c4 | B4 z2 B4 A2 G4 | A2 B2 c4 d4 z2 B2 | B2 A2 BABc d2 B2 A4 | G4 z4 z4 d4- | %44
w: l'al- tro lo snu-|di, Fa ch'el ben|si ri- cor- di, Fa|ch'el ben si _ _ _ _ ri- cor-|di e'l|
 d4 e2 d3 c/B/ c2 d2 B2 | A4 G4 z8 | z4 d4 c6 A2 | =B4 c4 A8 | G4 z4 z4 c4 | B6 G2 A6 B2 | %50
w: _ mal s'o- * * * * *|bli- i,|Se vin- cer|mi de- si-|i, Se|vin- cer mi de-|
 G4 A2 F2 B2 G2 A4 | B6 c4 B3 G B2- | B2 AG A4 G4 z2 c2- | c2 c2 A4 B2 d2 c4 | d6 c4 c2 d2 f2- | %55
w: si- i, Se vin- cer mi|de- si- * * *|* * * * i, Va-|* ne sian le tue forz'|e van gli stu- *|
 f2 =ed e4 f4 z2 f2- | f2 f2 e4 c2 c2 d4- | d2 B2 e2 d2 c8 | d8 z4 d4 | c4 d2 d4 A2 c4 | %60
w: * * * * di, Men-|* tre ne la mia men-|* te al- ber- go ha- vran-|no, Il|mi ar- dor la mia fe-|
 d2 d4 A2 c4 B2 c2 | d2 d4 B4 AG A4 | B8 z4 d4 | c4 d2 d4 A2 c4 | d2 d4 A2 c4 B2 c2 | %65
w: de, la mia fe- de e|l'al- trui in- gan- * *|no, Il|mi ar- dor la mia fe-|de, la mia fe- de e|
 d2 d4 B4 AG A4 | B16 |] %67
w: l'al- trui in- * * gan-|no.|
V:2
 z16 |[K:Bb][K:treble] z16 | z4 F6 F2 B4 | A4 G4 C4 F4- | F4 B6 A2 G4 | A4 z2 F2 F2 F2 =E4 | %6
w: ||Se nel pro-|prio va- lor tan-|* to ti fi-|di, tan- to ti fi-|
 F4 C6 C2 D4 | E2 D2 F8 D4- | D2 D2 =E4 F2 G2 G4 | F4 =E2 D2 E4 F4- | F4 D2 B4 A2 G4 | %11
w: di, Ch'a na- tu-|ra et al ciel, Ch'a|_ na- tu- ra et al ciel|can- giar fai sta- to,|_ can- giar fai sta-|
 A4 z2 F4 D2 D4 | E2 D2 C4 B,8 | z4 B8 A2 F2 | G2 C2 D2 B,2 C2 D2 E2 DC | DEFDED F3 EDC B,4 | %16
w: to, To- gli al tem-|po il pas- sa- to,|Fa che per|co- sa al mond' et a Dio no- * *||
 C2 F4 E2 G2 F3 =E/D/ E2 | F8 C6 C2 | D2 F4 =E2 F8 | z4 C6 C2 D4- | D4 C2 D2 E8 | z4 F4 G4 A4 | %22
w: va, et a Dio no- * * *|va, Chi mi|die- de il ve- len,|Chi mi die-|* de il ve- len|non l'hab- bia|
 B4 A4 z4 G4 | A4 B4 G8 | A4 z2 B2 d2 c2 B2 G2 | A4 F4 B8 | A8 G8 | A4 z2 F2 F2 F2 G4 | F12 =E4 | %29
w: da- to, non|l'hab- bia da-|to, Fa ch'io non hab- bia|vi- sto quel|ch'io vi-|di, O se di cio|ti sfi-|
 F4 z2 C4 F4 D2 | B12 G4 | _A4 G8 F4- | F2 E2 =E4 F4 C4 | D6 F2 E4 D4 | ^F4 G4 z2 E2 E2 E2 | %35
w: di, Mo- stra tua|gran po-|ten- za in mi-|* nor pro- va, Tu|sai quel che m'of-|fen- de e che mi|
 F4 D2 B2 B2 B2 G4 | A8 z2 B4 B2 | G2 B4 A2 B2 F4 F2 | G4 F2 =E2 F8 | z2 C2 B,2 C2 D4 C4 | %40
w: gio- va, e che mi gio-|va, Fa che|l'un ve- sta'l cor, Fa che|l'un ve- sta'l cor|l'al- tro lo snu- di,|
 E4 D2 E2 F4 =E4 | z4 z2 G4 F2 E4 | D4 G8 ^F4 | G2 D2 E2 D2 G4 ^F2 A2- | A2 B4 A2 G4 A2 G2- | %45
w: l'al- tro lo snu- di,|Fa ch'el ben|si ri- cor-|di e'l mal s'o- bli- i, e'l|_ mal s'o- bli- i, e'l|
 G^F/=E/ F2 G2 _E2 D8 | z16 | z4 G4 F6 D2 | =E4 F4 D4 C4 | z4 G4 F6 D2 | =E2 E2 F4 D2 E2 F4 | %51
w: _ _ _ mal s'o- bli- i,||Se vin- cer|mi de- si- i,|Se vin- cer|mi de- si- i, Se vin-|
 D4 E2 C2 F4 G4 | z8 z4 C4- | C2 C2 F6 G4 A2 | B2 F2 G4 A4 B4 | G4 c6 c2 A4 | B6 c4 A4 B2- | %57
w: cer mi de- si- i,|Va-|* ne sian le tue|forz' e van gli stu-|di, Men- tre ne|la mia men- te al-|
 B2 G4 B4 AG A4 | B4 F4 G4 F2 B2 | A4 B4 z4 z2 G2- | G2 D2 F4 C2 E4 G2- | G ^F/=E/ F2 D3 _E =F8 | %62
w: * ber- go ha- * * vran-|no, Il mi ar- dor, Il|mi ar- dor la|_ mia fed' e l'al- trui|_ in- * * gan- * *|
 F4 z2 F2 G4 F2 B2 | A4 B4 z4 z2 G2- | G2 D2 F4 C2 E4 G2- | G^F/=E/ F2 D3 _E =F8 | F16 |] %67
w: no, Il mi ar- dor, Il|mi ar- dor la|_ mia fed' e l'al- trui|_ _ _ in- gan- * *|no.|
V:3
 z16 |[K:Bb][K:treble-8] c6 c2 f4 d4 | e4 c4 z4 g4 | f4 d4 f8 | B4 z2 d4 f4 =e2 | %5
w: |Se nel pro- prio|va- lor tan-|to ti fi-|di, tan- to ti|
 f4 c2 c2 d2 B2 c4 | F8 A6 A2 | B4 c2 c2 d4 B4- | B2 B2 c4 B2 G2 e4 | d2 c4 =B2 c4 F4 | %10
w: fi- di, tan- to ti fi-|di, Ch'a na-|tu- ra et al ciel, Ch'a|_ na- tu- ra et al ciel|can- giar fai sta- to,|
 z2 f4 d2 g2 f3 =e/d/ e2 | f8 z8 | z4 e8 d2 B2 | c2 d2 e4 d2 f3 edc | dB f4 =e2 f4 z4 | %15
w: can- giar fai sta- * * *|to,|Fa che per|co- sa al mond' et a _ _ _|_ Dio no- * va,|
 z4 z2 c2 d2 f3 =e/d/ e2 | f2 c2 B2 c2 e2 f2 c4 | F4 A6 A2 G4 | A2 B2 c4 z2 c4 c2 | d2 f4 =e2 f8 | %20
w: Fa che per _ _ _|co- sa al mond' et a Dio no-|va, Chi mi die-|de il ve- len, Chi mi|die- de il ve- len|
 z8 z4 B4 | c4 d4 e4 f4 | z4 c4 d4 =e4 | f4 d4 z4 =e4 | f4 d4 f6 =e2 | f4 d4 g2 f2 e2 d2 | %26
w: non|l'hab- bia da- to,|non l'hab- bia|da- to, Fa|ch'io non hab- bia|vi- sto quel _ _ _|
 c2 c2 f6 =ed e4 | f8 d4 e4 | c2 c2 c4 d4 c4 | F8 z2 F2 f4- | f2 d2 g4 f4 =e2 e2 | f4 d4 c8- | %32
w: _ ch'io vi- * * *|* di, O|se di cio ti sfi-|di, Mo- stra|_ tua gran po- ten- za in|mi- nor pro-|
 c8 F8 | z16 | d4 d2 d2 e4 c4 | z2 f2 f2 f2 g2 f3 =e/d/ e2 | f8 B8 | z4 f6 f2 d4 | %38
w: * va,||e che mi gio- va,|e che mi gio- * * * *|* va,|Fa che l'un|
 e2 d2 c4 d4 c2 d2 | e4 d4 f4 e2 f2 | g4 f4 z8 | z2 f4 e2 d4 g4 | f4 e4 d4 z2 A2 | %43
w: ve- sta'l cor l'al- tro lo|snu- di, l'al- tro lo|snu- di,|Fa ch'el ben si|ri- cor- di e'l|
 B6 A2 G4 A2 d2- | d2 g4 f2 e4 d4- | d4 z4 z4 g4 | f6 d2 =e4 f4 | d4 c4 z8 | z8 g4 f4- | %49
w: mal s'o- bli- i, e'l|_ mal s'o- bli- i,|_ Se|vin- cer mi de-|si- i,|Se vin-|
 f2 d2 e2 e2 c4 d2 B2 | c4 F2 B4 c2 F4 | f4 z4 z2 d2 e4 | d2 c3 c f4 =ed e4 | f2 c4 c2 d4 =e2 f2- | %54
w: * cer mi de- si- i, Se|vin- cer mi de- si-|i, Se vin-|cer mi de- si- * * *|i, Va- ne sian le tue|
 f2 d4 =e2 f4 d4 | c8 F2 f4 f2 | d4 e4 f4 d4- | d2 e2 c2 B2 f8 | B4 d4 e4 d2 B2 | f4 B4 d4 A2 c2- | %60
w: _ forz' e van gli|stu- di, Men- tre|ne la mia men-|* te al- ber- go ha- vran-|no, Il mi ar- dor, Il|mi ar- dor la mia fed'|
 c2 B2 A6 GF G4 | A4 B4 c8 | B4 d4 e4 d2 B2 | f4 B4 d4 A2 c2- | c2 B2 A6 GF G4 | A4 B4 c8 | B16 |] %67
w: _ e l'al- * * *|trui in- gan-|no, Il mi ar- dor, Il|mi ar- dor la mia fed'|_ e l'al- * * *|trui in- gan-|no.|
V:4
 z16 |[K:Bb][K:bass] z4 F,6 F,2 B,4 | G,4 A,4 B,4 E,4 | F,2 D,2 G,4 F,8 | z2 B,4 G,4 F,2 C4 | %5
w: |Se nel pro-|prio va- lor tan-|to ti fi- di,|tan- to ti fi-|
 F,8 z8 | z8 F,6 F,2 | G,4 A,2 F,2 B,8 | z8 z4 E,4 | B,2 F,2 G,4 C,4 z2 C2 | F,4 B,4 C8 | F,8 z8 | %12
w: di,|Ch'a na-|tu- ra et al ciel|can-|giar fai sta- to, can-|giar fai sta-|to,|
 z8 z4 B,4 | A,2 F,2 G,2 A,2 B,4 F,2 B,2- | B,2 A,2 G,4 F,4 z4 | B,4 G,2 F,2 B,3 A, G,4 | %16
w: Fa|che per co- sa al mond' et a|_ Dio no- va,|et a Dio no- * *|
 F,4 z4 z8 | z4 F,6 F,2 E,4 | D,4 C,4 F,8 | z8 F,6 F,2 | G,4 A,2 B,2 E,8 | z8 z4 F,4 | %22
w: va,|Chi mi die-|de il ve- len,|Chi mi|die- de il ve- len|non|
 G,4 A,4 =B,4 C4 | z4 B,4 C8 | F,4 B,6 A,2 B,2 C2 | F,4 B,4 E,8 | F,8 C8 | F,2 F,2 F,4 B,4 E,4 | %28
w: l'hab- bia da- to,|Fa ch'io|non hab- bia vi- sto|quel ch'io vi-|di, O|se di cio ti sfi-|
 F,8 z4 C,4 | C6 A,2 C4 B,4 | B,4 E,4 B,2 B,2 C4 | F,4 G,4 =E,2 E,2 F,4 | C,8 z8 | z16 | %34
w: di, Mo-|stra tua gran po-|ten- za in mi- nor pro-|va, in mi- nor pro-|va,||
 z4 G,4 G,2 G,2 _A,4 | F,4 z2 B,2 B,2 B,2 C4 | F,8 z8 | z8 B,6 B,2 | G,4 A,2 C2 B,4 F,4 | %39
w: e che mi gio-|va, e che mi gio-|va,|Fa che|l'un ve- sta'l cor l'al-|
 E,2 F,2 G,4 F,4 _A,4 | G,2 A,2 B,4 F,4 z2 C2- | C2 B,2 A,2 C2 G,2 B,2 E,4 | z8 z4 D,4 | %43
w: tro lo snu- di, l'al-|tro lo snu- di, Fa|_ ch'el ben si ri- cor- di|e'l|
 G,6 F,2 E,4 D,4 | z16 | z4 C4 B,6 G,2 | A,4 B,4 C4 F,4 | z16 | C4 B,6 G,2 A,4 | B,4 E,4 F,4 z4 | %50
w: mal s'o- bli- i,||Se vin- cer|mi de- si- i,||Se vin- cer mi|de- si- i,|
 z8 z4 C4 | B,4 G,2 A,4 B,2 E,4 | F,8 z8 | F,6 F,2 B,4 C2 F,2 | B,4 G,2 C2 F,4 B,,4 | C,8 z8 | %56
w: Se|vin- cer mi de- si-|i,|Va- ne sian le tue|forz' e van gli stu-|di,|
 z16 | z16 | z4 B,4 E,4 B,4 | z16 | G,4 D,2 F,4 C,2 E,4 | D,4 G,4 F,8 | B,,4 B,4 E,4 B,4 | z16 | %64
w: ||Il mi ar- dor||la mia fed' e l'al-|trui in- gan-|no, Il mi ar- dor||
 G,4 D,2 F,4 C,2 E,4 | D,4 G,4 F,8 | B,,16 |] %67
w: la mia fed' e l'al-|trui in- gan-|no.|

